!!!COM: Bach, Johann Sebastian
!!!CDT: 1685/02/21/-1750/07/28/
!!!OTL@@DE: Wer nur den lieben Gott l&auml;&szlig;t walten
!!!SCT: BWV 197/10
!!!PC#: 62
!!!AGN: chorale
**harm	**kern	**kern	**kern	**kern
*	*ICvox	*ICvox	*ICvox	*ICvox
*	*Ibass	*Itenor	*Ialto	*Isoprn
*	*I"Bass	*I"Tenor	*I"Alto	*I"Soprano
*>[A,A,B]	*>[A,A,B]	*>[A,A,B]	*>[A,A,B]	*>[A,A,B]
*>norep[A,B]	*>norep[A,B]	*>norep[A,B]	*>norep[A,B]	*>norep[A,B]
*>A	*>A	*>A	*>A	*>A
*	*	*oclefC4	*oclefC3	*oclefC1
*	*clefF4	*clefGv2	*clefG2	*clefG2
*k[f#c#]	*k[f#c#]	*k[f#c#]	*k[f#c#]	*k[f#c#]
*b:	*b:	*b:	*b:	*b:
*M4/4	*M4/4	*M4/4	*M4/4	*M4/4
*met(c)	*met(c)	*met(c)	*met(c)	*met(c)
*MM100	*MM100	*MM100	*MM100	*MM100
i	4BB	4B	4d	4f#
=1	=1	=1	=1	=1
i	4B	4d	4f#	4b
V6	4A#	4c#	4f#	4cc#
i	4B	4B	4f#	4dd
V7	4F#	4A#X	4e	4cc#
=2	=2	=2	=2	=2
VI	4G	4B	4d	4b
iio6	4E	4e	4g	4cc#
V	4F#	4c#	4f#	4a#
V;	4FF#;	4A#;	4c#;	4f#;
=3	=3	=3	=3	=3
.	4r	4ry	4ry	4r
v	4F#	4c#	4f#	4anX
D:vi7	4BB	4d	4f#	4a
V65	4C#	4AnX	4e	4gnX
=4	=4	=4	=4	=4
I	4D	4A	4d	4f#
IV	4G	4B	4d	4b
b:ii%65	4E	4c#	4g	4b
V7	4F#	4e	4f#	4a#
=5	=5	=5	=5	=5
i;	2.BB;	2.d;	2.f#;	2.b;
*>B	*>B	*>B	*>B	*>B
V	4F#	4A#	4f#	4cc#
=6	=6	=6	=6	=6
i	4B	4B	4f#	4dd
D:V	8AnXL	8c#L	8aL	8eeL
V2	8GJ	8c#J	8aJ	8eeJ
I6	4F#	4d	4a	4ff#
I	4D	4d	4a	4ff#
=7	=7	=7	=7	=7
ii65	4G	4d	4b	4ee
V	4A	4c#	4a	4ee
I;	4D;	4f#;	4a;	4dd;
I	4D	4d	4a	4ff#
=8	=8	=8	=8	=8
b:viio6	4C#	4A#	4cc#	4ee
i	4BB	4B	4f#	4dd
ii%65	8EL	8BL	8gL	8cc#L
V	8F#J	8A#J	8f#J	8cc#J
iv6	4G	4B	4e	4b
=9	=9	=9	=9	=9
V(64)	4F#	4B	4f#	4dd
V7	4F#	4A#	4e	4cc#
I;	4BB;	4F#;	4d#;	4b;
==	==	==	==	==
*-	*-	*-	*-	*-
!!!YOR1: 371 vierstimmige Choralges&auml;nge von Johann Sebastian Bach, 
!!!YOR2: 4th ed. by Alfred D&ouml;rffel (Leipzig: Breitkopf und H&auml;rtel, 
!!!YOR2: c.1875). 178 pp. Plate "V.A.10".  reprint: J.S. Bach, 371 Four-Part 
!!!YOR4: Chorales (New York: Associated Music Publishers, Inc., c.1940).
!!!SMS: B&H, 4th ed, Alfred D&ouml;rffel, c.1875, plate V.A.10
!!!EED:  Craig Stuart Sapp
!!!EEV:  2009/05/22
